X:396
T: Shiliting
N: C1431
O: China,Ningxia, Yinchuan
S: I, 198]
R: Xiaodiao. Nann liqing]
M: 2/4
L: 1/16
K: G
d2A2d4 | d2^c4d2 | A2G2F2E2 | D8 |
A2G2A4 | ^C4D4 | G2E2D2B,2 | A,8 |
D2D2G4 | A2A4d2 | A2G2F2E2 | D8 |
d2A2d4 | d3g^c2A2 | G6A2 | E2D2C2B,2 | A,8

@@@ Tune index: 6397
